resources/haticons/SVG/image.svg

<!-- Generated by IcoMoon.io -->
<svg version="1.1" xmlns="http://www.w3.org/2000/svg" width="24" height="24" viewBox="0 0 24 24">
<title>image</title>
<path d="M22.497 3c0.001 0.001 0.002 0.002 0.003 0.003v17.995c-0.001 0.001-0.002 0.002-0.003 0.003h-20.995c-0.001-0.001-0.002-0.002-0.003-0.003v-17.995c0.001-0.001 0.002-0.002 0.003-0.003h20.995zM22.5 1.5h-21c-0.825 0-1.5 0.675-1.5 1.5v18c0 0.825 0.675 1.5 1.5 1.5h21c0.825 0 1.5-0.675 1.5-1.5v-18c0-0.825-0.675-1.5-1.5-1.5v0z"></path>
<path d="M19.5 6.75c0 1.243-1.007 2.25-2.25 2.25s-2.25-1.007-2.25-2.25 1.007-2.25 2.25-2.25 2.25 1.007 2.25 2.25z"></path>
<path d="M21 19.5h-18v-3l5.25-9 6 7.5h1.5l5.25-4.5z"></path>
</svg>

<svg xmlns="http://www.w3.org/2000/svg" width="24" height="24"><path d="M22.497 3l.003.003v17.995l-.003.003H1.502l-.003-.003V3.003L1.502 3h20.995zm.003-1.5h-21C.675 1.5 0 2.175 0 3v18c0 .825.675 1.5 1.5 1.5h21c.825 0 1.5-.675 1.5-1.5V3c0-.825-.675-1.5-1.5-1.5z"/><path d="M19.5 6.75a2.25 2.25 0 1 1-4.5 0 2.25 2.25 0 0 1 4.5 0zM21 19.5H3v-3l5.25-9 6 7.5h1.5L21 10.5z"/></svg>
